svgs/saq.svg

<svg xmlns="http://www.w3.org/2000/svg" width="192" height="192" fill="none" viewBox="0 0 192 192"><path stroke="#000" stroke-linecap="round" stroke-linejoin="round" stroke-miterlimit="6" stroke-width="10" d="m60.092 171 71.818-.862"/><path stroke="#000" stroke-linecap="round" stroke-linejoin="round" stroke-miterlimit="6" stroke-width="14" d="M71.932 130.794H43.546a6 6 0 0 1-6-6V29a6 6 0 0 1 6-6h104.908a6 6 0 0 1 6 6v95.794a6 6 0 0 1-6 6h-27.237"/></svg>

<svg width="192" height="192" viewBox="0 0 192 192" fill="none" xmlns="http://www.w3.org/2000/svg"><path d="M60.092 171L131.91 170.138" stroke="black" stroke-width="10" stroke-miterlimit="6" stroke-linecap="round" stroke-linejoin="round"/><path d="M71.932 130.794H43.546C40.2323 130.794 37.546 128.108 37.546 124.794V29C37.546 25.6863 40.2323 23 43.546 23H148.454C151.768 23 154.454 25.6863 154.454 29V124.794C154.454 128.108 151.768 130.794 148.454 130.794H121.217" stroke="black" stroke-width="14" stroke-miterlimit="6" stroke-linecap="round" stroke-linejoin="round"/></svg>
